blockchains/ethereum/assets/0x07E0EDf8ce600FB51d44F51E3348D77D67F298ae/logo.svg

<svg fill="none" height="250" viewBox="0 0 250 250" width="250" xmlns="http://www.w3.org/2000/svg" xmlns:xlink="http://www.w3.org/1999/xlink"><clipPath id="a"><path d="m0 0h250v250h-250z"/></clipPath><g clip-path="url(#a)"><path d="m246.26 155.238c-16.697 66.965-84.529 107.719-151.5094 91.02-66.9523-16.695-107.7105-84.524-91.00661-151.4833 16.68921-66.9723 84.52151-107.7289 151.48101-91.03427 66.976 16.69467 107.731 84.53087 91.033 151.49857l.001-.001z" fill="#fff"/><g fill="#23292f"><path d="m178.917 61.1982h22.043l-45.874 45.4208c-16.613 16.44-43.547 16.44-60.172 0l-45.8918-45.4208h22.0612l34.8526 34.5037c5.078 5.0051 11.921 7.8101 19.051 7.8101 7.129 0 13.973-2.805 19.051-7.8101z"/><path d="m70.8004 187.5h-22.0582l46.1717-45.701c16.6131-16.44 43.5471-16.44 60.1721 0l46.172 45.701h-22.043l-35.15-34.784c-5.078-5.004-11.922-7.81-19.052-7.81-7.129 0-13.973 2.806-19.051 7.81z"/></g></g></svg>

<svg width="250" height="250" viewBox="0 0 250 250" fill="none" xmlns="http://www.w3.org/2000/svg">
<g clip-path="url(#clip0_7_56)">
<path d="M246.26 155.238C229.563 222.203 161.731 262.957 94.7506 246.258C27.7983 229.563 -12.9599 161.734 3.74399 94.7747C20.4332 27.8024 88.2655 -12.9542 155.225 3.74043C222.201 20.4351 262.956 88.2713 246.258 155.239L246.259 155.238H246.26Z" fill="white"/>
<path d="M178.917 61.1982H200.96L155.086 106.619C138.473 123.059 111.539 123.059 94.914 106.619L49.0222 61.1982H71.0834L105.936 95.7019C111.014 100.707 117.857 103.512 124.987 103.512C132.116 103.512 138.96 100.707 144.038 95.7019L178.917 61.1982Z" fill="#23292F"/>
<path d="M70.8004 187.5H48.7422L94.9139 141.799C111.527 125.359 138.461 125.359 155.086 141.799L201.258 187.5H179.215L144.065 152.716C138.987 147.712 132.143 144.906 125.013 144.906C117.884 144.906 111.04 147.712 105.962 152.716L70.8004 187.5Z" fill="#23292F"/>
</g>
<defs>
<clipPath id="clip0_7_56">
<rect width="250" height="250" fill="white"/>
</clipPath>
</defs>
</svg>
